src/lib/packages/icons/src/assets/line/comment-plus-alt.svg

<svg width="24" height="24" viewBox="0 0 24 24" fill="none" xmlns="http://www.w3.org/2000/svg">
<path d="M12 3.25C6.26 3.25 2.25 6.84898 2.25 12.001C2.25 14.08 2.90189 15.947 4.13989 17.426C3.98989 17.996 3.61706 18.8291 2.68506 19.5811C2.29406 19.9131 2.15295 20.442 2.32495 20.928C2.49595 21.411 2.93408 21.731 3.43408 21.743C3.57208 21.748 3.71291 21.75 3.85791 21.75C5.36491 21.75 7.24293 21.4599 8.60693 20.2729C9.67493 20.591 10.814 20.752 12.001 20.752C17.741 20.752 21.751 17.153 21.751 12.001C21.751 6.84898 17.74 3.25 12 3.25ZM12 19.2531C10.815 19.2531 9.69003 19.072 8.65503 18.714C8.37603 18.617 8.06404 18.694 7.86304 18.91C6.90304 19.934 5.34311 20.202 4.18311 20.243C4.99511 19.413 5.52292 18.399 5.69092 17.328C5.72592 17.101 5.65598 16.871 5.50098 16.703C4.35498 15.463 3.75 13.837 3.75 12.001C3.75 7.73098 7.143 4.75 12 4.75C16.857 4.75 20.25 7.73198 20.25 12.001C20.25 16.27 16.857 19.2531 12 19.2531ZM15.75 12C15.75 12.414 15.414 12.75 15 12.75H12.75V15C12.75 15.414 12.414 15.75 12 15.75C11.586 15.75 11.25 15.414 11.25 15V12.75H9C8.586 12.75 8.25 12.414 8.25 12C8.25 11.586 8.586 11.25 9 11.25H11.25V9C11.25 8.586 11.586 8.25 12 8.25C12.414 8.25 12.75 8.586 12.75 9V11.25H15C15.414 11.25 15.75 11.586 15.75 12Z" fill="currentColor"/>
</svg>

<svg xmlns="http://www.w3.org/2000/svg" width="24" height="24" fill="none"><path fill="currentColor" d="M12 3.25c-5.74 0-9.75 3.599-9.75 8.751 0 2.079.652 3.946 1.89 5.425-.15.57-.523 1.403-1.455 2.155a1.22 1.22 0 0 0-.36 1.347c.17.483.61.803 1.11.815.137.005.278.007.423.007 1.507 0 3.385-.29 4.749-1.477a11.87 11.87 0 0 0 3.394.479c5.74 0 9.75-3.599 9.75-8.751 0-5.152-4.011-8.751-9.751-8.751Zm0 16.003c-1.185 0-2.31-.181-3.345-.539a.748.748 0 0 0-.792.196c-.96 1.024-2.52 1.292-3.68 1.333.812-.83 1.34-1.844 1.508-2.915a.752.752 0 0 0-.19-.625c-1.146-1.24-1.751-2.866-1.751-4.702 0-4.27 3.393-7.251 8.25-7.251s8.25 2.982 8.25 7.251-3.393 7.252-8.25 7.252ZM15.75 12a.75.75 0 0 1-.75.75h-2.25V15a.75.75 0 0 1-1.5 0v-2.25H9a.75.75 0 0 1 0-1.5h2.25V9a.75.75 0 0 1 1.5 0v2.25H15a.75.75 0 0 1 .75.75Z"/></svg>
